docs/img/icons/icon-geo-marker.svg

<svg width="32" height="32" viewBox="0 0 32 32" fill="none" xmlns="http://www.w3.org/2000/svg">
<path d="M5.9215 18.5115C5.37044 18.8384 5 19.4391 5 20.125C5 21.1589 5.84113 22 6.875 22C7.68975 22 8.3845 21.4774 8.6425 20.75H13.5C14.5339 20.75 15.375 21.5911 15.375 22.625C15.375 23.6589 14.5339 24.5 13.5 24.5H6C4.27688 24.5 2.875 25.9019 2.875 27.625C2.875 29.3481 4.27688 30.75 6 30.75H12.25C12.5952 30.75 12.875 30.4702 12.875 30.125C12.875 29.7798 12.5952 29.5 12.25 29.5H6C4.96613 29.5 4.125 28.6589 4.125 27.625C4.125 26.5911 4.96613 25.75 6 25.75H13.5C15.2231 25.75 16.625 24.3481 16.625 22.625C16.625 20.9019 15.2231 19.5 13.5 19.5H8.6425C8.49469 19.0833 8.20356 18.7339 7.8285 18.5115L12.6021 10.6792C13.3531 9.5505 13.75 8.23525 13.75 6.875C13.75 3.08413 10.6659 0 6.875 0C3.08413 0 0 3.08413 0 6.875C0 8.23525 0.396937 9.5505 1.14787 10.6792L5.9215 18.5115ZM6.875 20.75C6.53038 20.75 6.25 20.4696 6.25 20.125C6.25 19.7804 6.53038 19.5 6.875 19.5C7.21962 19.5 7.5 19.7804 7.5 20.125C7.5 20.4696 7.21962 20.75 6.875 20.75ZM6.875 1.25C9.97663 1.25 12.5 3.77338 12.5 6.875C12.5 7.99175 12.1733 9.07094 11.5553 9.99594C11.5505 10.0031 11.5458 10.0104 11.5413 10.0179L6.875 17.6741C6.875 17.6741 2.1995 10.0031 2.19469 9.99594C1.57669 9.07094 1.25 7.99175 1.25 6.875C1.25 3.77338 3.77338 1.25 6.875 1.25Z" fill="#C3167C"/>
<path d="M6.875 10C8.59812 10 10 8.59812 10 6.875C10 5.15188 8.59812 3.75 6.875 3.75C5.15188 3.75 3.75 5.15188 3.75 6.875C3.75 8.59812 5.15188 10 6.875 10ZM6.875 5C7.90887 5 8.75 5.84113 8.75 6.875C8.75 7.90887 7.90887 8.75 6.875 8.75C5.84113 8.75 5 7.90887 5 6.875C5 5.84113 5.84113 5 6.875 5Z" fill="#C3167C"/>
<path d="M25.125 10.375C21.3341 10.375 18.25 13.4591 18.25 17.25C18.25 18.6124 18.6482 19.9297 19.4015 21.0596L24.1573 28.5196C23.7891 28.7424 23.5035 29.0884 23.3576 29.5H17.875C17.5298 29.5 17.25 29.7798 17.25 30.125C17.25 30.4702 17.5298 30.75 17.875 30.75H23.3575C23.6155 31.4774 24.3102 32 25.125 32C26.1589 32 27 31.1589 27 30.125C27 29.4449 26.6361 28.8484 26.0928 28.5196L30.8486 21.0596C31.6018 19.9297 32 18.6124 32 17.25C32 13.4591 28.9159 10.375 25.125 10.375ZM25.125 30.75C24.7804 30.75 24.5 30.4696 24.5 30.125C24.5 29.7804 24.7804 29.5 25.125 29.5C25.4696 29.5 25.75 29.7804 25.75 30.125C25.75 30.4696 25.4696 30.75 25.125 30.75ZM29.8053 20.3709C29.8029 20.3747 25.125 27.7123 25.125 27.7123C25.125 27.7123 20.4471 20.3746 20.4447 20.3709C19.8267 19.4459 19.5 18.3667 19.5 17.25C19.5 14.1484 22.0234 11.625 25.125 11.625C28.2266 11.625 30.75 14.1484 30.75 17.25C30.75 18.3667 30.4233 19.4459 29.8053 20.3709Z" fill="#C3167C"/>
<path d="M25.125 14.125C23.4019 14.125 22 15.5269 22 17.25C22 18.9731 23.4019 20.375 25.125 20.375C26.8481 20.375 28.25 18.9731 28.25 17.25C28.25 15.5269 26.8481 14.125 25.125 14.125ZM25.125 19.125C24.0911 19.125 23.25 18.2839 23.25 17.25C23.25 16.2161 24.0911 15.375 25.125 15.375C26.1589 15.375 27 16.2161 27 17.25C27 18.2839 26.1589 19.125 25.125 19.125Z" fill="#C3167C"/>
<path d="M15.0625 30.75C15.4077 30.75 15.6875 30.4702 15.6875 30.125C15.6875 29.7798 15.4077 29.5 15.0625 29.5C14.7173 29.5 14.4375 29.7798 14.4375 30.125C14.4375 30.4702 14.7173 30.75 15.0625 30.75Z" fill="#C3167C"/>
</svg>

<svg width="32" height="32" fill="none" xmlns="http://www.w3.org/2000/svg"><path d="M5.921 18.512A1.876 1.876 0 006.875 22c.815 0 1.51-.523 1.768-1.25H13.5c1.034 0 1.875.841 1.875 1.875A1.877 1.877 0 0113.5 24.5H6a3.129 3.129 0 00-3.125 3.125A3.129 3.129 0 006 30.75h6.25a.625.625 0 100-1.25H6a1.877 1.877 0 01-1.875-1.875c0-1.034.841-1.875 1.875-1.875h7.5a3.129 3.129 0 003.125-3.125A3.129 3.129 0 0013.5 19.5H8.643a1.884 1.884 0 00-.815-.988l4.774-7.833a6.845 6.845 0 001.148-3.804A6.883 6.883 0 006.875 0 6.883 6.883 0 000 6.875c0 1.36.397 2.675 1.148 3.804l4.774 7.833zm.954 2.238a.626.626 0 11.001-1.251.626.626 0 01-.001 1.251zm0-19.5A5.631 5.631 0 0112.5 6.875a5.599 5.599 0 01-.959 3.143l-4.666 7.656-4.68-7.678a5.599 5.599 0 01-.945-3.121A5.631 5.631 0 016.875 1.25z" fill="#C3167C"/><path d="M6.875 10A3.129 3.129 0 0010 6.875 3.129 3.129 0 006.875 3.75 3.129 3.129 0 003.75 6.875 3.129 3.129 0 006.875 10zm0-5c1.034 0 1.875.841 1.875 1.875A1.877 1.877 0 016.875 8.75 1.877 1.877 0 015 6.875C5 5.841 5.841 5 6.875 5zm18.25 5.375a6.883 6.883 0 00-6.875 6.875 6.85 6.85 0 001.151 3.81l4.756 7.46a1.884 1.884 0 00-.8.98h-5.482a.625.625 0 100 1.25h5.483c.258.727.952 1.25 1.767 1.25a1.876 1.876 0 00.968-3.48l4.756-7.46A6.846 6.846 0 0032 17.25a6.883 6.883 0 00-6.875-6.875zm0 20.375a.626.626 0 11.001-1.251.626.626 0 01-.001 1.251zm4.68-10.38c-.002.005-4.68 7.342-4.68 7.342l-4.68-7.341a5.599 5.599 0 01-.945-3.121 5.631 5.631 0 015.625-5.625 5.631 5.631 0 015.625 5.625 5.599 5.599 0 01-.945 3.12z" fill="#C3167C"/><path d="M25.125 14.125A3.129 3.129 0 0022 17.25a3.129 3.129 0 003.125 3.125 3.129 3.129 0 003.125-3.125 3.129 3.129 0 00-3.125-3.125zm0 5a1.877 1.877 0 01-1.875-1.875c0-1.034.841-1.875 1.875-1.875S27 16.216 27 17.25a1.877 1.877 0 01-1.875 1.875zM15.063 30.75a.625.625 0 100-1.25.625.625 0 000 1.25z" fill="#C3167C"/></svg>
